static/assets/img/icons/theme/media/youtube.svg

<svg height="24" viewBox="0 0 24 24" width="24" xmlns="http://www.w3.org/2000/svg"><g fill="none" fill-rule="evenodd"><path d="m0 0h24v24h-24z" opacity="0"/><g fill="#000"><path d="m4.22266882 4 15.61410398.00001353c1.5505457 0 2.8456169 1.18158737 2.9874153 2.72563572.117214 1.27634728.175821 2.67548984.175821 4.19742765 0 1.781883-.0803367 3.5639773-.2410101 5.3462831l-.0000047-.0000005c-.139389 1.5462042-1.4354044 2.7306405-2.9878788 2.7306405l-15.54844459.0000022c-1.54831841 0-2.84230059-1.1782913-2.98689209-2.7198435-.15718588-1.6758264-.23577882-3.2692126-.23577882-4.7801587 0-1.51094641.07859298-3.10433301.23577893-4.7801598l.00000129.00000012c.14459135-1.54155038 1.43857202-2.71984032 2.9868886-2.71984032z" opacity=".3"/><path d="m11.1821576 14.8052934 4.4034508-3.0100066c.2279718-.1558316.286453-.4669657.1306215-.6949374-.0347716-.0508686-.0786461-.0948719-.1294125-.1297924l-4.4034508-3.02898771c-.2275139-.15649928-.5388181-.09893054-.6953174.12858339-.0573474.0833699-.0880496.18217777-.0880496.28336701v6.03899431c0 .2761424.2238576.5.5.5.1006894 0 .199033-.0303999.282158-.0872206z"/></g></g></svg>

<svg width="24px" height="24px" viewBox="0 0 24 24" version="1.1" xmlns="http://www.w3.org/2000/svg" xmlns:xlink="http://www.w3.org/1999/xlink">
    <title>Icon For Youtube</title>
    <g stroke="none" stroke-width="1" fill="none" fill-rule="evenodd">
        <rect opacity="0" x="0" y="0" width="24" height="24"></rect>
        <path d="M4.22266882,4 L19.8367728,4.00001353 C21.3873185,4.00001353 22.6823897,5.1816009 22.8241881,6.72564925 C22.9414021,8.00199653 23.0000091,9.40113909 23.0000091,10.9230769 C23.0000091,12.7049599 22.9196724,14.4870542 22.758999,16.26936 L22.7589943,16.2693595 C22.6196053,17.8155637 21.3235899,19 19.7711155,19 L4.22267091,19.0000022 C2.6743525,19.0000022 1.38037032,17.8217109 1.23577882,16.2801587 C1.07859294,14.6043323 1,13.0109461 1,11.5 C1,9.98905359 1.07859298,8.39566699 1.23577893,6.7198402 L1.23578022,6.71984032 C1.38037157,5.17828994 2.67435224,4 4.22266882,4 Z" fill="#000000" opacity="0.3"></path>
        <path d="M11.1821576,14.8052934 L15.5856084,11.7952868 C15.8135802,11.6394552 15.8720614,11.3283211 15.7162299,11.1003494 C15.6814583,11.0494808 15.6375838,11.0054775 15.5868174,10.970557 L11.1833666,7.94156929 C10.9558527,7.78507001 10.6445485,7.84263875 10.4880492,8.07015268 C10.4307018,8.15352258 10.3999996,8.25233045 10.3999996,8.35351969 L10.3999996,14.392514 C10.3999996,14.6686564 10.6238572,14.892514 10.8999996,14.892514 C11.000689,14.892514 11.0990326,14.8621141 11.1821576,14.8052934 Z" fill="#000000"></path>
    </g>
</svg>
